res/skins/LateNight/palemoon/buttons/btn__reloop.svg

<?xml version="1.0" encoding="UTF-8" standalone="no"?>
<svg
   xmlns:dc="http://purl.org/dc/elements/1.1/"
   xmlns:cc="http://creativecommons.org/ns#"
   xmlns:rdf="http://www.w3.org/1999/02/22-rdf-syntax-ns#"
   xmlns:svg="http://www.w3.org/2000/svg"
   xmlns="http://www.w3.org/2000/svg"
   width="24"
   height="24"
   version="1.1"
   id="svg18">
  <metadata
     id="metadata24">
    <rdf:RDF>
      <cc:Work
         rdf:about="">
        <dc:format>image/svg+xml</dc:format>
        <dc:type
           rdf:resource="http://purl.org/dc/dcmitype/StillImage" />
        <dc:title></dc:title>
      </cc:Work>
    </rdf:RDF>
  </metadata>
  <defs
     id="defs22" />
  <g
     style="display:none;opacity:0.334599"
     id="layer2">
    <g
       style="stroke-width:1.6;stroke-linejoin:round;stroke-miterlimit:4;stroke-dasharray:none"
       id="g8"
       stroke-width="1.6"
       stroke="#000001"
       fill="none">
      <path
         style="stroke-width:1.6;stroke-linejoin:round;stroke-miterlimit:4;stroke-dasharray:none"
         id="path2"
         color="#000001"
         d="m 11,3 h 2 v 6 h -2 z" />
      <path
         style="stroke-width:1.6;stroke-linejoin:round;stroke-miterlimit:4;stroke-dasharray:none"
         id="path4"
         color="#000001"
         d="m 20,5 v 13 h -3 l 5e-4,-1.5001 L 18.5,16.5 v -10 l -3.4999,1.49e-4 1.25e-4,-1.5001 z" />
      <path
         style="stroke-width:1.6;stroke-linejoin:round;stroke-miterlimit:4;stroke-dasharray:none"
         id="path6"
         color="#000001"
         d="m 4,5 v 13 h 5 v 3 L 16,17.25 9,13.5 9.0001,16.4999 5.5,16.5 V 6.5 L 9,6.5001 V 5 Z" />
    </g>
    <g
       id="g16"
       fill="#918273">
      <path
         id="path10"
         color="#000001"
         d="m 11,3 h 2 v 6 h -2 z" />
      <path
         id="path12"
         color="#000001"
         d="m 20,5 v 13 h -3 l 5e-4,-1.5001 L 18.5,16.5 v -10 l -3.4999,1.49e-4 1.25e-4,-1.5001 z" />
      <path
         id="path14"
         color="#000001"
         d="m 4,5 v 13 h 5 v 3 L 16,17.25 9,13.5 9.0001,16.4999 5.5,16.5 V 6.5 L 9,6.5001 V 5 Z" />
    </g>
  </g>
  <g
     style="display:inline"
     id="layer1">
    <path
       d="M 11 3 L 11 9 L 13 9 L 13 3 L 11 3 z M 5.2382812 5 C 4.5306802 5 4 5.6155815 4 6.2792969 L 4 16.720703 C 4 17.384418 4.5306796 18 5.2382812 18 L 9 18 L 9 21 L 16 17.25 L 9 13.5 L 9 16.490234 L 5.5097656 16.490234 L 5.5097656 6.5097656 L 9 6.5097656 L 9 5 L 5.2382812 5 z M 15 5 L 15 6.4746094 L 18.490234 6.5097656 L 18.490234 16.490234 L 17 16.490234 L 17 18 L 18.761719 18 C 19.469321 18 20 17.384419 20 16.720703 L 20 6.2792969 C 20 5.6155807 19.46932 5 18.761719 5 L 15 5 z "
       style="color:#000000;font-style:normal;font-variant:normal;font-weight:normal;font-stretch:normal;font-size:medium;line-height:normal;font-family:sans-serif;font-variant-ligatures:normal;font-variant-position:normal;font-variant-caps:normal;font-variant-numeric:normal;font-variant-alternates:normal;font-variant-east-asian:normal;font-feature-settings:normal;font-variation-settings:normal;text-indent:0;text-align:start;text-decoration:none;text-decoration-line:none;text-decoration-style:solid;text-decoration-color:#000000;letter-spacing:normal;word-spacing:normal;text-transform:none;writing-mode:lr-tb;direction:ltr;text-orientation:mixed;dominant-baseline:auto;baseline-shift:baseline;text-anchor:start;white-space:normal;shape-padding:0;shape-margin:0;inline-size:0;clip-rule:nonzero;display:inline;overflow:visible;visibility:visible;opacity:1;isolation:auto;mix-blend-mode:normal;color-interpolation:sRGB;color-interpolation-filters:linearRGB;solid-color:#000000;solid-opacity:1;vector-effect:none;fill:#918273;fill-opacity:1;fill-rule:nonzero;stroke:#000000;stroke-width:1.5;stroke-linecap:round;stroke-linejoin:round;stroke-miterlimit:4;stroke-dasharray:none;stroke-dashoffset:0;stroke-opacity:1;color-rendering:auto;image-rendering:auto;shape-rendering:auto;text-rendering:auto;enable-background:accumulate;stop-color:#000000;stop-opacity:1"
       id="path880-3" />
    <path
       id="path880"
       style="color:#000000;font-style:normal;font-variant:normal;font-weight:normal;font-stretch:normal;font-size:medium;line-height:normal;font-family:sans-serif;font-variant-ligatures:normal;font-variant-position:normal;font-variant-caps:normal;font-variant-numeric:normal;font-variant-alternates:normal;font-variant-east-asian:normal;font-feature-settings:normal;font-variation-settings:normal;text-indent:0;text-align:start;text-decoration:none;text-decoration-line:none;text-decoration-style:solid;text-decoration-color:#000000;letter-spacing:normal;word-spacing:normal;text-transform:none;writing-mode:lr-tb;direction:ltr;text-orientation:mixed;dominant-baseline:auto;baseline-shift:baseline;text-anchor:start;white-space:normal;shape-padding:0;shape-margin:0;inline-size:0;clip-rule:nonzero;display:inline;overflow:visible;visibility:visible;opacity:1;isolation:auto;mix-blend-mode:normal;color-interpolation:sRGB;color-interpolation-filters:linearRGB;solid-color:#000000;solid-opacity:1;vector-effect:none;fill:#918273;fill-opacity:1;fill-rule:nonzero;stroke:none;stroke-width:1.50997;stroke-linecap:round;stroke-linejoin:round;stroke-miterlimit:4;stroke-dasharray:none;stroke-dashoffset:0;stroke-opacity:1;color-rendering:auto;image-rendering:auto;shape-rendering:auto;text-rendering:auto;enable-background:accumulate;stop-color:#000000;stop-opacity:1"
       d="M 5.2382812,5 C 4.5306802,5 4,5.6155815 4,6.2792969 V 16.720703 C 4,17.384418 4.5306796,18 5.2382812,18 h 4.328125 V 16.490234 H 5.5097656 V 6.5097656 H 9 V 5 Z M 15,5 v 1.474989 l 3.490234,0.034777 v 9.980468 H 17 V 18 h 1.761719 C 19.469321,18 20,17.384419 20,16.720703 V 6.2792969 C 20,5.6155807 19.46932,5 18.761719,5 Z" />
    <path
       style="display:inline;fill:#918273;fill-opacity:1;stroke:none;stroke-width:1px;stroke-linecap:butt;stroke-linejoin:miter;stroke-opacity:1"
       d="M 11,9 V 3 h 2 v 6 z"
       id="path903" />
    <path
       style="display:inline;fill:#918273;fill-opacity:1;stroke:none;stroke-width:1px;stroke-linecap:butt;stroke-linejoin:miter;stroke-opacity:1"
       d="M 9,13.5 V 21 l 7,-3.75 z"
       id="path905" />
  </g>
</svg>

<svg width="24" height="24" version="1.1" xmlns="http://www.w3.org/2000/svg">
  <g display="none" opacity=".334599">
    <g fill="none" stroke="#000001" stroke-linejoin="round" stroke-width="1.6">
      <path d="m11 3h2v6h-2z" color="#000001"/>
      <path d="m20 5v13h-3l5e-4 -1.5001 1.4995 1e-4v-10l-3.4999 1.49e-4 1.25e-4 -1.5001z" color="#000001"/>
      <path d="m4 5v13h5v3l7-3.75-7-3.75 1e-4 2.9999-3.5001 1e-4v-10l3.5 1e-4v-1.5001z" color="#000001"/>
    </g>
    <g fill="#918273">
      <path d="m11 3h2v6h-2z" color="#000001"/>
      <path d="m20 5v13h-3l5e-4 -1.5001 1.4995 1e-4v-10l-3.4999 1.49e-4 1.25e-4 -1.5001z" color="#000001"/>
      <path d="m4 5v13h5v3l7-3.75-7-3.75 1e-4 2.9999-3.5001 1e-4v-10l3.5 1e-4v-1.5001z" color="#000001"/>
    </g>
  </g>
  <g fill="#918273">
    <path d="m11 3v6h2v-6h-2zm-5.76172 2c-0.707601 0-1.23828 0.615582-1.23828 1.2793v10.4414c0 0.663715 0.53068 1.2793 1.23828 1.2793h3.76172v3l7-3.75-7-3.75v2.99023h-3.49023v-9.98047h3.49023v-1.50977h-3.76172zm9.76172 0v1.47461l3.49023 0.0351562v9.98047h-1.49023v1.50977h1.76172c0.707602 0 1.23828-0.615581 1.23828-1.2793v-10.4414c0-0.663716-0.53068-1.2793-1.23828-1.2793h-3.76172z" color="#000000" color-rendering="auto" dominant-baseline="auto" image-rendering="auto" shape-rendering="auto" solid-color="#000000" stop-color="#000000" stroke="#000" stroke-linecap="round" stroke-linejoin="round" stroke-width="1.5" style="font-feature-settings:normal;font-variant-alternates:normal;font-variant-caps:normal;font-variant-east-asian:normal;font-variant-ligatures:normal;font-variant-numeric:normal;font-variant-position:normal;font-variation-settings:normal;inline-size:0;isolation:auto;mix-blend-mode:normal;shape-margin:0;shape-padding:0;text-decoration-color:#000000;text-decoration-line:none;text-decoration-style:solid;text-indent:0;text-orientation:mixed;text-transform:none;white-space:normal"/>
    <path d="m5.23828 5c-0.707601 0-1.23828 0.615582-1.23828 1.2793v10.4414c0 0.663715 0.53068 1.2793 1.23828 1.2793h4.32812v-1.50977h-4.05664v-9.98047h3.49023v-1.50977zm9.76172 0v1.47499l3.49023 0.034777v9.98047h-1.49023v1.50977h1.76172c0.707602 0 1.23828-0.615581 1.23828-1.2793v-10.4414c0-0.663716-0.53068-1.2793-1.23828-1.2793z" color="#000000" color-rendering="auto" dominant-baseline="auto" image-rendering="auto" shape-rendering="auto" solid-color="#000000" stop-color="#000000" style="font-feature-settings:normal;font-variant-alternates:normal;font-variant-caps:normal;font-variant-east-asian:normal;font-variant-ligatures:normal;font-variant-numeric:normal;font-variant-position:normal;font-variation-settings:normal;inline-size:0;isolation:auto;mix-blend-mode:normal;shape-margin:0;shape-padding:0;text-decoration-color:#000000;text-decoration-line:none;text-decoration-style:solid;text-indent:0;text-orientation:mixed;text-transform:none;white-space:normal"/>
    <path d="m11 9v-6h2v6z"/>
    <path d="m9 13.5v7.5l7-3.75z"/>
  </g>
</svg>
